images/pool.svg

<svg width="32" height="32" viewBox="0 0 32 32" fill="none" xmlns="http://www.w3.org/2000/svg">
<path d="M17.7242 11.4297C17.7144 11.4297 17.7071 11.4297 17.6974 11.4297C17.6877 11.4297 17.6779 11.4297 17.6706 11.4297C17.6658 11.4297 17.6585 11.4297 17.6536 11.4297C17.6487 11.4297 17.6414 11.4297 17.6366 11.4297C17.6268 11.4297 17.6171 11.4321 17.6073 11.4321C17.5757 11.4321 17.5465 11.4297 17.5149 11.4297H11.3445C10.7603 11.4297 10.2856 11.9043 10.2856 12.4885C10.2856 13.0727 10.7603 13.5473 11.3445 13.5473H17.5149C17.5465 13.5473 17.5757 13.5449 17.6073 13.5425C17.6366 13.5449 17.6682 13.5473 17.6974 13.5473C18.8682 13.5473 19.8151 14.4942 19.8151 15.665C19.8151 16.8358 18.8682 17.7826 17.6974 17.7826H15.5798V16.7238H17.6925H17.695H17.6974C18.2792 16.7238 18.7562 16.2467 18.7562 15.665C18.7562 15.0832 18.2792 14.6062 17.6974 14.6062H17.695H17.6925H14.5209H12.7562C12.1721 14.6062 11.6974 15.0808 11.6974 15.665C11.6974 16.2492 12.1721 16.7238 12.7562 16.7238H13.4621V17.7826V19.9003V22.3709C13.4621 22.9526 13.9392 23.4297 14.5209 23.4297C15.1027 23.4297 15.5798 22.9526 15.5798 22.3709V19.9003H17.6974C20.0366 19.9003 21.9327 18.0041 21.9327 15.665C21.9327 13.3356 20.0512 11.4443 17.7242 11.4297Z" fill="#27DC8A"/>
<circle cx="16.0001" cy="17.1437" r="12.5714" stroke="#445B74" stroke-width="2"/>
<path d="M28.5716 29.7148H3.42871" stroke="#445B74" stroke-width="2" stroke-linecap="round" stroke-linejoin="round"/>
</svg>

<svg xmlns="http://www.w3.org/2000/svg" width="27.143" height="27.143" viewBox="0 0 27.143 27.143">
  <g id="pool" transform="translate(-2.429 -3.572)">
    <path id="Path_2218" data-name="Path 2218" d="M17.724,11.43h-.088l-.029,0-.092,0h-6.17a1.059,1.059,0,1,0,0,2.118h6.17c.032,0,.061,0,.092,0s.061,0,.09,0a2.118,2.118,0,1,1,0,4.235H15.58V16.724H17.7a1.059,1.059,0,1,0,0-2.118H12.756a1.059,1.059,0,0,0,0,2.118h.706v5.647a1.059,1.059,0,0,0,2.118,0V19.9H17.7a4.235,4.235,0,0,0,.027-8.471Z" fill="rgba(255,0,0,0)" stroke="#cd58c1" stroke-width="1"/>
    <circle id="Ellipse_90" data-name="Ellipse 90" cx="12.571" cy="12.571" r="12.571" transform="translate(3.429 4.572)" fill="none" stroke="#445b74" stroke-width="2"/>
    <path id="Path_2219" data-name="Path 2219" d="M28.572,29.715H3.429" fill="none" stroke="#445b74" stroke-linecap="round" stroke-linejoin="round" stroke-width="2"/>
  </g>
</svg>
